X: 3342
T: Belles Of Tipperary, The
R: reel
M: 4/4
K: Dmajor
c|d ~A3 DEFA|defe d2 cd|B2 dB (3FGA Bd|fede feee|
d2 ~A2 DEFA|defe dBBA|B2 BF ABdB|AFEG FD D2|
D2 ~A2 DEFA|defe dBcA|B2 dB ABde|fede feee|
d2 ~A2 DEFA|defe dBcA|B2 BF ABdB|AFEG FD D2||
faab afef|gfed (3Bcd ef|g2 gf gbag|fagf egfe|
d ~B3 A ~F3|D ~F3 ABd^g|afef dBAB|A2 ag fede|
faab afdf|gfed (3Bcd ef|g2 gf gbag|fagf egfe|
d ~B3 A ~F3|DFFB ABdf|afef d{ed}BAF|A2 ag fed||

